X:1
T:Title
%%score { ( 1 3 ) | ( 2 4 ) }
L:1/8
Q:1/4=69
M:6/8
K:G
V:1 treble nm="Grand Piano"
V:3 treble 
V:2 bass 
V:4 bass 
V:1
 [DB][CA][B,G] [CA][B,G][CE] | [B,D]3 [B,G]2 [DB]/[DB]/ | BA[DG] ABc |[M:5/8] B-B- B3 | %4
w: Jay~Deavereaux * * * * *||||
[M:1/8] D/D/ |[M:3/4] GF [B,DG]A z [G,CE] | [B,D]3 [B,G]2 [DB]/[DB]/ | cB [EA]B GA | %8
w: ||||
[M:7/4] [DG]6 z2 z2 z4 |[M:3/4] [CG]6 | [B,G]6 |] %11
w: |||
V:2
 [G,,G,][G,,G,][G,,G,] [G,,G,][G,,G,][G,,G,] | [G,,G,]3 [G,,G,]2 [G,,G,]/[G,,G,]/ | z3 .F,3 | %3
[M:5/8] [G,D]-[G,D]- [G,D]3 |[M:1/8] B,/[G,B,]/ |[M:3/4] [G,D]-[G,A,D] .G,2 GC, | %6
 [G,,G,]3 [G,,G,]2 [G,,G,]/[G,,G,]/ | [C,G,]2 [C,G,]G, B,[D,CD] |[M:7/4] [G,,G,]6 z2 z2 z4 | %9
[M:3/4] [C,E,]6 | [G,,D,G,]6 |] %11
V:3
 x6 | x6 | .D3 z3 |[M:5/8] x5 |[M:1/8] x |[M:3/4] z2 z .[CE]3 | x6 | E2 z2 z2 |[M:7/4] x14 | %9
[M:3/4] x6 | x6 |] %11
V:4
 x6 | x6 | [G,,G,][A,,F,]B,, [D,D]-[D,G,D][D,A,D] |[M:5/8] x5 |[M:1/8] x |[M:3/4] .B,2 z .C,3 | %6
 x6 | z2 z .D,3 |[M:7/4] x14 |[M:3/4] x6 | x6 |] %11

